X:55
T:Johnny I Do Miss You
R:polka
D:De Danann: The Mist Covered Mountain
Z:id:hn-polka-55
M:2/4
L:1/8
K:D
AF ED|F2 A,>E|FB AF|E2 d>B|AF ED|F2 A,F|GA/G/ FE|1 D2 d>B:|2 D2 DE||
FA A/B/A/G/|FA A>G|FA Bc|d2 d2|FA A/B/A/G/|FA d>e|fe ed|e2 ef||
FA A/B/A/G/|FA A>G|FA Bc|d2 d>B|AF ED|F2 A,F|GA/G/ FE|D2 d>B||
<end>
<start>
